X:1
T:Shipston
T:Shipston
T:Public Domain, Courtesy of the Cyber Hymnal
T:Public Domain, Courtesy of the Cyber Hymnal
Z:Public Domain, Courtesy of the Cyber Hymnal
%%score { ( 1 2 ) ( 3 4 ) }
L:1/8
Q:1/4=115
M:4/4
K:F
V:1 treble nm="P1"
V:2 treble 
V:3 bass nm="P2"
V:4 bass 
V:1
"^Editor: John Henry Fowler""^( Revision: 11-23-2007 )" F2 A2 c3 d | cB AG"^( 1906 )" A2 F2 | %2
 F2 A2 c3"^Ralph Vaughan Williams" d | c"^( 1872 - 1958 )"A GF G4 | F2 AB c2 f2 | c3 B B2 A2 | %6
 F3 G A2 BG | F2 E2 F4 |] %8
V:2
 C2 F2 F3 F | E2 E2 F2 F2 | F2 F2 F3 F | F2 D2 D4 | D2 F2 E2 F2 | F3 G F2 F2 | D3 E F2 D2 | %7
 C2 C2 C4 |] %8
V:3
 A,2 C2 C3 F | C2 C2 C2 A,2 | A,2 D2 C3 B, | A,2 =B,2 C4 | A,2 F,2 G,2 F,2 | F,2 C2 C2 C2 | %6
 D2 CB, A,2 DB, | A,2 G,2 A,4 |] %8
V:4
 F,2 F,2 A,3 B, | C2 C,2 F,2 F,2 | F,2 D,2 A,,3 B,, | C,2 D,2 C,4 | D,2 C,2 B,,2 A,,2 | %5
 D,2 E,2 F,2 A,2 | B,2 A,G, F,2 B,,2 | C,2 C,2 F,4 |] %8

